X: 2033
T: Bore.
%R: bourr\'ee
B: Henry Playford "Apollo's Banquet", London 1687 (5th Edition)
F: https://archive.org/details/apollosbanquetco01rugg
Z: 2017 John Chambers <jc:trillian.mit.edu>
M: C|
L: 1/8
K: Gdor
% - - - - - - - - - -
d2 |\
g2a2 b2(g^f/g/) | agab a2d2 |\
g2a2 b2(g^f/g/) | a6 :: d2 |\
g2gf e2c2 |
f2fe d2ef | gabf (gf)(ed) |\
c4 B2f2 | b2ba a2=e2 |\
a2ag ^f3(=e/f/) | g3a a3g | g6 |]
% - - - - - - - - - -

%%sep 1 1 500
%%sep 1 1 500

